X: 687
T: Evlerinin Önü Lâle Bağıdır
C: Aziz Şenses
O: Turkey
F: http://compmusic.upf.edu/node/140
N: muhayyer--turku--kapali_curcuna--evlerinin_onu--elazig
N: makam= muhayyer
N: form= turku
N: usul= kapali_curcuna = 10/8
M: 10/8
L: 1/16
K: C _2/4B ^3/4f  
Q: 1/4=240
%%MIDI tuningsystem comma53
e6e4e4e4c2  | e2d2 d6d2 B2c4z2  | e4 d2d2 c2c2 B2B4A2  | \
w:  ARANAĞME  |   |   | 
e4 e2e4e4e4z2  | 
w:   | 
e6e4e4e4c2  | e2d2 d6d2 cBc4B2  | e4 d2d2 c2c2 B2B4A2  | 
w:   |   |   | 
A4 a2a2 g2f2 g2a6  | g6a4a4a6  | a2{c'}b{c'}a a6gf g2e4d2  | \
w:   |  Ev le ri nin   |  ö *  *  *  *  *  nü   | 
f2g2 a6g2 f2g2 e2d2  | 
w:  lâ *  le  ba *  ğı  | 
d8-d2f2 g2a4z2  | g6a4a4a6  | a2{c'}b{c'}a a6gf g2e4d2  | \
w:  dır  vay    |  Ev le ri nin   |  ö *  *  *  *  *  nü   | 
f2g2 a6g2 f2g2 e2d2  | 
w:  lâ *  le  ba *  ğı  | 
d8-d2c2 d2e6  | e4 e6e4e4c2  | e2d2 d6d2 cBc4B2  | \
w:  dır  SAZ  |  E ser  bâd_ ı   |  sa *  *  bâ   | 
e4 d2d2 c2c2 B2B4A2  | 
w:  zül *  fün  *  da *  ğı  | 
e8-e2c2 d2e6  | e4 e6e4e4c2  | e2d2 d6d2 cBc4B2  | \
w:  dır   SAZ  |  E ser  bâd_ ı   |  sa *  *  bâ   | 
e4 d2d2 c2c2 B2B4A2  | 
w:  zül *  fün  *  da *  ğı  | 
A8-A2f2 g2a4z2  | g4 g2a4g4a6  | a2{c'}a{c'}a a6g2 {a}f2{g}e4d2  | \
w:  dır  SAZ  |  Se *  vi le cek   |  ko *  *  *  *  *  ku  | 
f2g2 a6g2 f2g2 e2d2  | 
w:  la *  cak  ça *  ğı  | 
d8-d2f2 g2a4z2  | g4 g2a4g4a6  | a2{c'}a{c'}a a6g2 {a}f2{g}e4d2  | \
w:  dır   SAZ  |  Se *  vi le cek   |  ko *  *  *  *  *  ku  | 
f2g2 a6g2 f2g2 e2d2  | 
w:  la *  cak  ça *  ğı  | 
d8-d2c2 d2e6  | e6e4e4e4c2  | e2d2 d6d2 B2c4z2  | \
w:  dır  SAZ  |  Yan dım  yâr  e  |  lin *  *  den   | 
e4 d2d2 c2c2 B2B4A2  | 
w:  gel  *  in *  saf  *  ey  | 
e8-e2g=f ede4z2  | e6e4e4e4c2  | e2d2 d6d2 cBc4B2  | 
w:  le   SAZ  |  El le rin  ya  |  nın *  *  da   | 
e4 d2d2 c2c2 B2B4A2  | A18z2  | e6e4e4e4c2  | \
w:  mer *  ha *  met  *  ey  |  le    |  ARANAĞME  | 
e2d2 d6d2 B2c4z2  | 
w:   | 
e4 d2d2 c2c2 B2B4A2  | e4 e2e4e4e4z2  | \
w:   |   | 
e6e4e4e4c2  | e2d2 d6d2 cBc4B2  | 
w:   |   | 
e4 d2d2 c2c2 B2B4A2  | A4 a2a2 g2f2 g2a6  | \
w:   |   | 
g6a4a4a6  | a2{c'}b{c'}a a6gf g2e4d2  | 
w:  Ev le ri nin   |  ö *  *  *  *  *  nü   | 
f2g2 a6g2 f2g2 e2d2  | d8-d2f2 g2a4z2  | \
w:  lâ *  le  ba *  ğı  |  dır  vay    | 
g6a4a4a6  | a2{c'}b{c'}a a6gf g2e4d2  | 
w:  Ev le ri nin   |  ö *  *  *  *  *  nü   | 
f2g2 a6g2 f2g2 e2d2  | d8-d2c2 d2e6  | \
w:  lâ *  le  ba *  ğı  |  dır  SAZ  | 
e4 e6e4e4c2  | e2d2 d6d2 cBc4B2  | 
w:  E ser  bâd_ ı   |  sa *  *  bâ   | 
e4 d2d2 c2c2 B2B4A2  | e8-e2c2 d2e6  | \
w:  zül *  fün  *  da *  ğı  |  dır   SAZ  | 
e4 e6e4e4c2  | e2d2 d6d2 cBc4B2  | 
w:  E ser  bâd_ ı   |  sa *  *  bâ   | 
e4 d2d2 c2c2 B2B4A2  | A8-A2f2 g2a4z2  | \
w:  zül *  fün  *  da *  ğı  |  dır  SAZ  | 
g4 g2a4g4a6  | a2{c'}a{c'}a a6g2 {a}f2{g}e4d2  | 
w:  Se *  vi le cek   |  ko *  *  *  *  *  ku  | 
f2g2 a6g2 f2g2 e2d2  | d8-d2f2 g2a4z2  | \
w:  la *  cak  ça *  ğı  |  dır   SAZ  | 
g4 g2a4g4a6  | a2{c'}a{c'}a a6g2 {a}f2{g}e4d2  | 
w:  Se *  vi le cek   |  ko *  *  *  *  *  ku  | 
f2g2 a6g2 f2g2 e2d2  | d8-d2c2 d2e6  | \
w:  la *  cak  ça *  ğı  |  dır  SAZ  | 
e6e4e4e4c2  | e2d2 d6d2 B2c4z2  | 
w:  Yan dım  yâr  e  |  lin *  *  den   | 
e4 d2d2 c2c2 B2B4A2  | e8-e2g=f ede4z2  | \
w:  gel  *  in *  saf  *  ey  |  le   SAZ  | 
e6e4e4e4c2  | 
w:  El le rin  ya  | 
e2d2 d6d2 cBc4B2  | e4 d2d2 c2c2 B2B4A2  | \
w:  nın *  *  da   |  mer *  ha *  met  *  ey  | 
A18z2  | |


